tools/download-figma-icons/icons/solid/battery-active.svg

<svg width="24" height="24" viewBox="0 0 24 24" fill="none" xmlns="http://www.w3.org/2000/svg">
<path fill-rule="evenodd" clip-rule="evenodd" d="M15.6294 13.1102L12.4945 17.6919C12.367 17.8869 12.1495 18.0001 11.932 18.0001C11.8645 18.0001 11.7978 17.9926 11.7295 17.9694C11.4445 17.8794 11.2495 17.6101 11.2495 17.3026V14.2502H8.94707C8.69207 14.2502 8.45958 14.1069 8.33958 13.8752C8.21208 13.6427 8.21958 13.357 8.36958 13.1395L11.5045 8.55781C11.6695 8.30281 11.9853 8.18957 12.2702 8.28031C12.5545 8.37031 12.7495 8.63956 12.7495 8.94705V12.0002H15.0519C15.3069 12.0002 15.5394 12.1427 15.6594 12.3752C15.7869 12.607 15.7794 12.8927 15.6294 13.1102ZM17.6244 2.25044H16.4994V1.12547C16.4994 0.502228 15.9969 0.000488271 15.3744 0.000488271H8.62458C8.00209 0.000488271 7.4996 0.502228 7.4996 1.12547V2.25044H6.37463C5.33965 2.25044 4.49966 3.09043 4.49966 4.1254V22.125C4.49966 23.1593 5.33965 24 6.37463 24H17.6244C18.6594 24 19.4994 23.1593 19.4994 22.125V4.1254C19.4994 3.09043 18.6594 2.25044 17.6244 2.25044Z" fill="black"/>
</svg>

<svg width="24" height="24" viewBox="0 0 24 24" fill="none" xmlns="http://www.w3.org/2000/svg"><path fill-rule="evenodd" clip-rule="evenodd" d="m15.63 13.11-3.136 4.582a.68.68 0 0 1-.764.277.695.695 0 0 1-.48-.666V14.25H8.947a.684.684 0 0 1-.607-.375.702.702 0 0 1 .03-.736l3.135-4.581a.673.673 0 0 1 .765-.278c.285.09.48.36.48.667V12h2.302c.255 0 .487.143.607.375a.701.701 0 0 1-.03.735Zm1.994-10.86H16.5V1.125C16.5.502 15.997 0 15.374 0h-6.75C8.003 0 7.5.502 7.5 1.125V2.25H6.375C5.34 2.25 4.5 3.09 4.5 4.125v18C4.5 23.159 5.34 24 6.375 24h11.25c1.034 0 1.874-.84 1.874-1.875v-18c0-1.035-.84-1.875-1.875-1.875Z" fill="currentColor"/></svg>
